app/images/eng.svg

<svg width="30" height="20" viewBox="0 0 30 20" version="1.1" xmlns="http://www.w3.org/2000/svg" xmlns:xlink="http://www.w3.org/1999/xlink">
<title>eng_lang</title>
<desc>Created using Figma</desc>
<g id="Canvas" transform="translate(-4621 -203)">
<g id="eng_lang">
<g id="Page 1">
<g id="&#208;&#167;&#209;&#130;&#208;&#190; &#209;&#130;&#208;&#176;&#208;&#186;&#208;&#190;&#208;&#181; &#208;&#163;&#209;&#135;&#208;&#184;.&#209;&#128;&#209;&#131; | 768  1024">
<g id="What is olymp">
<g id="Table">
<g id="Page 1">
<g id="Fill 1">
<use xlink:href="#path0_fill" transform="translate(4621 209.789)" fill="#0D1013"/>
</g>
<g id="Fill 2">
<use xlink:href="#path1_fill" transform="translate(4621.14 204.684)" fill="#0D1013"/>
</g>
<g id="Fill 3">
<use xlink:href="#path2_fill" transform="translate(4621.91 213.053)" fill="#0D1013"/>
</g>
<g id="Group 13">
<g id="Group 6">
<g id="Fill 4">
<use xlink:href="#path3_fill" transform="translate(4624.5 203.875)" fill="#FF5767"/>
</g>
</g>
<g id="Fill 7">
<use xlink:href="#path4_fill" transform="translate(4642.39 214.649)" fill="#FF5767"/>
</g>
<g id="Fill 9">
<use xlink:href="#path5_fill" transform="translate(4630.68 206.636)" fill="#FFFFFF"/>
</g>
<g id="Fill 11">
<use xlink:href="#path6_fill" transform="translate(4641.63 206.623)" fill="#FFFFFF"/>
</g>
</g>
</g>
</g>
</g>
</g>
</g>
</g>
</g>
<defs>
<path id="path0_fill" fill-rule="evenodd" d="M 0 2.18049L 4.48539 4.90147L 7.31533 0.788529L 3.14686 -1.11446e-07L 0 2.18049Z"/>
<path id="path1_fill" fill-rule="evenodd" d="M 1.82722e-09 3.00641L 3.91493 5.64224L 7.14009 0.958822L 5.32058 3.58204e-08L 1.82722e-09 3.00641Z"/>
<path id="path2_fill" fill-rule="evenodd" d="M 6.12221 6.03429L 3.25558e-08 3.46879L 3.60919 -3.11634e-07L 7.3377 2.29155L 6.12221 6.03429Z"/>
<path id="path3_fill" fill-rule="evenodd" d="M 2.80482 0.0121898L 24.2288 1.95575C 25.627 2.07421 26.6374 3.1478 26.4883 4.33985L 25.4108 12.8545C 25.2765 13.917 24.2549 14.7388 23.0021 14.7869L 4.03896 15.5273C 2.69297 15.5829 1.5334 14.7314 1.39172 13.5875L 0.0159013 2.39629C -0.163067 1.02654 1.19411 -0.132189 2.80482 0.0121898Z"/>
<path id="path4_fill" fill-rule="evenodd" d="M 3.89256 7.94452L -5.16474e-07 3.8649L 4.10508 8.59536e-08L 3.89256 7.94452Z"/>
<path id="path5_fill" fill-rule="evenodd" d="M 5.87704 1.17813C 5.85206 0.552859 6.34198 0.0260624 6.97173 0.000888703C 7.54965 -0.0216936 8.05374 0.38849 8.14397 0.956008L 8.9456 8.97087C 8.97058 9.59614 8.48066 10.1229 7.85091 10.1481C 7.27299 10.1707 6.7689 9.76051 6.67867 9.19299L 6.37293 6.14253L 2.76001 6.51273L 3.06575 9.55579C 3.09073 10.1811 2.6008 10.7079 1.97106 10.733C 1.39314 10.7556 0.889044 10.3454 0.798814 9.77791L 0.000914374 1.75564C -0.0240666 1.13037 0.465859 0.603577 1.0956 0.578403C 1.67352 0.555821 2.17762 0.966004 2.26785 1.53352L 2.55121 4.37297L 6.16413 4.00277L 5.87704 1.17813Z"/>
<path id="path6_fill" fill-rule="evenodd" d="M 2.8338 1.2891C 2.81366 1.97582 2.23686 2.51631 1.54522 2.49669C 0.85396 2.4767 0.309226 1.904 0.32936 1.21728C 0.330106 1.18581 0.332342 1.15397 0.335698 1.1225C 0.376339 0.463176 0.947546 -0.0380771 1.61159 0.00227491C 1.64366 0.00412591 1.67572 0.00745798 1.70779 0.0119004C 2.36401 0.0437377 2.86959 0.597929 2.83753 1.24948C 2.83641 1.26614 2.83529 1.28317 2.8338 1.3002L 2.8338 1.2891ZM 0.309599 4.25071C 0.394609 3.66986 0.937478 3.26782 1.52248 3.35186C 2.04373 3.42738 2.43261 3.86829 2.43858 4.39138L 2.13284 8.97448C 2.06386 9.55718 1.53218 9.97402 0.944936 9.90554C 0.399828 9.84186 -0.00844322 9.37874 0.000132389 8.83381L 0.309599 4.25071Z"/>
</defs>
</svg>

<svg width="30" height="20" viewBox="0 0 30 20" xmlns="http://www.w3.org/2000/svg" xmlns:xlink="http://www.w3.org/1999/xlink"><title>eng_lang</title><desc>Created using Figma</desc><use xlink:href="#a" transform="translate(0 6.789)" fill="#0D1013"/><use xlink:href="#b" transform="translate(.14 1.684)" fill="#0D1013"/><use xlink:href="#c" transform="translate(.91 10.053)" fill="#0D1013"/><use xlink:href="#d" transform="translate(3.5 .875)" fill="#FF5767"/><use xlink:href="#e" transform="translate(21.39 11.649)" fill="#FF5767"/><use xlink:href="#f" transform="translate(9.68 3.636)" fill="#FFF"/><use xlink:href="#g" transform="translate(20.63 3.623)" fill="#FFF"/><defs><path id="a" fill-rule="evenodd" d="M0 2.18l4.485 2.721L7.315.79 3.147 0 0 2.18z"/><path id="b" fill-rule="evenodd" d="M0 3.006l3.915 2.636L7.14.96 5.32 0 0 3.006z"/><path id="c" fill-rule="evenodd" d="M6.122 6.034L0 3.47 3.61 0l3.728 2.292-1.216 3.742z"/><path id="d" fill-rule="evenodd" d="M2.805.012l21.424 1.944c1.398.118 2.408 1.192 2.26 2.384l-1.078 8.514c-.135 1.063-1.156 1.885-2.409 1.933l-18.963.74c-1.346.056-2.506-.796-2.647-1.94L.016 2.398c-.18-1.37 1.178-2.53 2.789-2.385z"/><path id="e" fill-rule="evenodd" d="M3.893 7.945L0 3.865 4.105 0l-.212 7.945z"/><path id="f" fill-rule="evenodd" d="M5.877 1.178A1.136 1.136 0 0 1 6.972.001a1.14 1.14 0 0 1 1.172.955l.802 8.015a1.136 1.136 0 0 1-1.095 1.177 1.14 1.14 0 0 1-1.172-.955l-.306-3.05-3.613.37.306 3.043a1.136 1.136 0 0 1-1.095 1.177A1.14 1.14 0 0 1 .8 9.778L0 1.756A1.136 1.136 0 0 1 1.096.578a1.14 1.14 0 0 1 1.172.956l.283 2.839 3.613-.37-.287-2.825z"/><path id="g" fill-rule="evenodd" d="M2.834 1.29a1.25 1.25 0 0 1-1.289 1.207 1.248 1.248 0 0 1-1.21-1.374A1.201 1.201 0 0 1 1.709.012a1.184 1.184 0 0 1 1.13 1.237l-.004.051v-.01zM.31 4.25a1.07 1.07 0 0 1 1.212-.898c.522.075.91.516.917 1.04l-.306 4.582c-.07.583-.6 1-1.188.932A1.065 1.065 0 0 1 0 8.834L.31 4.25z"/></defs></svg>
